X:1
T:Title
%%score { ( 1 3 ) | 2 }
L:1/8
Q:1/4=100
M:4/4
K:Bb
V:1 treble nm="Grand Piano"
V:3 treble 
V:2 bass 
V:1
 [DF]>[DG] [DF]>[DG] [DF]2 [FB]2 | c>B A>B G4 | A>B A>B A2 G2 | [EG]>[DF] [DF]>[DG] [DF]4 | %4
w: D.~B.~Towner * * * * *||||
 [DF]>[DG] [DF]>[DG] [DF]2 [FB]2 | c>B A>B G4 | A>B A>B c>c [Ge]>[Ge] | [Fd]2 [EFc]2 [DFB]4 | %8
w: ||||
 [DB]2 F2 B2 F2 | c>B A>[GB] [Ac]4 | c2 F2 c2 F2 | d>c [FB]>c d4 | e2 d2 c2 B2 | %13
w: |||||
 A>A G>G [DF]2 [FB]2 | [Gc]>[Gc] [Ge]>[Ge] [Fd]2 [EFc]2 | [DFB]6 z2 |] %16
w: |||
V:2
 [B,,B,]>[B,,B,] [B,,B,]>[B,,B,] [B,,B,]2 [D,B,]2 | [E,G,E]>[E,G,E] [E,G,E]>[E,G,E] [E,CE]4 | %2
 [F,CE]>[F,CE] [F,CE]>[F,CE] [F,CE]2 [F,A,E]2 | [B,,B,]>[B,,B,] [B,,B,]>[B,,B,] [B,,B,]4 | %4
 [B,,B,]>[B,,B,] [B,,B,]>[B,,B,] [B,,B,]2 [D,B,]2 | [E,G,E]>[E,G,E] [E,G,E]>[E,G,E] [E,CE]4 | %6
 [F,CE]>[F,CE] [F,CE]>[F,B,E] [F,A,E]>[F,A,E] [F,A,]>[F,A,] | [F,B,]2 F,2 B,,4 | %8
 [B,,F,]2 [D,B,]2 [F,DF]2 [B,D]2 | [F,A,E]>[F,B,D] [F,CF]>[F,C][K:treble] [F,F]4 | %10
 [F,EF]2 [A,C]2 [F,A,F]2 [A,C]2 | [B,F]>[K:bass][F,A,F] [D,F,]>[K:treble][F,A,F] [B,F]4 | %12
 [F,A,F]2 [F,B,F]2 [F,EF]2[K:bass] [F,DF]2 | [F,CF]>[F,CF] [F,A,E]>[F,A,E] B,,2 D,2 | %14
 [E,B,]>[E,B,] [C,A,]>[C,A,] [F,B,]2 F,2 | B,,6 z2 |] %16
V:3
 x8 | x8 | x8 | x8 | x8 | x8 | x8 | x8 | x8 | x8 | x8 | x8 | x8 | z4 B,4 | x8 | x8 |] %16

